X: 2
T: Duke Of Fife's Welcome To Deeside, The
Z: DonaldK
S: https://thesession.org/tunes/9568#setting20049
R: reel
M: 4/4
L: 1/8
K: Amaj
F/|:E2A2 A2B<c|B2A2 A2B<c|d2e<f {gf}e2a2|e>cA<c B2B<c|E2A2 A2B<c|B2A2 A2B<c|d2e<f e>cB<c|[1{cB}A4 A2-A>F:|[2{cB}A4 A2c<d|e2c<A Ta2g<a|{gag}f2g<a e2c2|d2e<f {gf}e2a2|e>cA<c B2c<d|e2c<A Ta2g<a|{gag}f2g<a e2c2|d2e<f e>cB<c|{cB}A4 A2c<d|e2c<A Ta2g<a|{gag}f2g<a e2c2|d2e<f {gf}e2a2|e>cA<c B2B<c|E2A2 A2B<c|B2A2 A2B<c|d2e<f e>cB<c|{cB}A4 A2-A>F||:E>DC>E A>A,A>c|B>AG>B A>A,A>c|d>cd>f e>ca>f|e>cA<c B>AG>F|E>DC>E A>A,A>c|B>AG>B A>A,A>c|d>ef<a e>cd<B|[1{cB}A4 A2-A>F:|[2{cB}A4 A2c<d|{ed}c2 (3dcB A>ag>a|f<ad>f e<ac>e|d>cd>f e>ca>f|e>cA<c B2c<d|{ed}c2 (3dcB A>ag>a|f<ad>f e<ac>e|d>ef<a e>cd<B|{cB}A4 A2c<d|{ed}c2 (3dcB A>ag>a|f<ad>f e<ac>e|d>cd>f e>ca>f|e>cA<c B>AG>F|E>DC>E A>A,A>c|B>AG>B A>A,A>c|d>ef<a e>cd<B|{cB}A4 A2- A3/2|]
